X:1
T:Title
%%score { 1 | 2 }
L:1/8
M:4/4
K:D
V:1 treble nm="Grand Piano"
V:2 bass 
V:1
 z4 z2[Q:1/4=100] [F,D]2 | [A,EA]2 [A,DF]2 [B,DB]2 [A,DA][B,EG] | %2
 [DF]2[K:bass] [G,CE]2 [F,D]2[K:treble] [A,DF]2 | [A,EA]2 [Dd]2 [Ec]2 [DB]2 | [A,CA]6 A2 | %5
 d2 cB AGFE | D2 E2 F2 FF | F2 d2 cB ^A2 |[M:9/8] [DFB]3 [DFB] [DFB]2- [DFB] A2 | %9
[M:4/4] B2 F2 A2 AA | B2 F2 A2 A2 | Bc d2 [Ge]2 [EGc]2 |[M:8/4] [Fd]8 z8 |[M:4/4] dd'c'b agfe | %14
 dd'c'b agfe | defg abc'd' | e'2 [EGAc]2- [EGAc] [DFAd]3 |] %17
V:2
 z4 z2 D,2 | C,2 D,2 G,2 F,G, | A,2 A,,2 D,2 D,2 | C,2 [B,,F,]2 [E,^G,]2 [E,G,]2 | A,,6 A,2 | %5
 D2 CB, A,G,F,E, | D,2 E,2 F,2 [F,^A,C][F,A,C] | [F,^A,C]2 [F,B,F]2 [F,A,E][F,A,D] [F,CE]2 | %8
[M:9/8] [B,,B,]3 [B,,B,] [B,,B,]2- [B,,B,] [F,A,D]2 | %9
[M:4/4] [G,B,D]2 [B,D]2 [A,CE]2 [F,A,D][F,A,D] | [G,B,D]2 [B,D]2 [A,CE]2 [F,A,D]2 | %11
 [G,B,D][G,B,E] [F,A,D]2 [E,B,]2 A,,2 |[M:8/4] [D,A,]8 z8 |[M:4/4] D,DCB, A,G,F,E, | %14
 D,DCB, A,G,F,E, | D,E,F,G, A,B,CD | E2 A,2- A, D,3 |] %17

